X:2180
T:British Grenadiers
M:2/4
L:1/16
K:G
D2|G2D2 G2A2|B2cB A2Bc|d2G2 BAGF|G6:||Bc|d3e d2c2|B3c d2d2|e2e2 dcBA|G4
F3D|G2FG A2GA|B2AB c2Bc|d2G2 BAGF|G6||


